X:1
T:The Roving Pedlar
M:4/4
L:1/8
R:set dance
Z:Harry Seaman
Z:To David James
K:G
(3DEF|GBdG FDBA|GBce d2 ef|gfag fdcA|defd cAEF|!
GABd FAcA|BGAF GBde|fd^cd =cdEF|G2 GF G2:||!
|:de|fefd cAEF|GB (3def gdBd|gbag fed^c|defd cAFA|!
GBdG FAdB|GBce (3def ga|bgfg fde^c|d^cde dB=cA|BGDG BG (3DGB|!
cAEA cA (3EAc|Bdga fdcA|GABd FAcd|fd^cd =cdEF|G2 GF G2:||
